X:1
T:Come, All Who Fear the Lord God
T:Text: Psalm 22:23-31; vers. Psalter, 1912 Tune: Berthold Tours, 1872
T:76 76 D TOURS www.hymnary.org/text/come_all_who_fear_the_lord_god
T:Come, All Who Fear the Lord God
T:This hymn is in the public domain. You may freely use this score for personal and congregational worship. If you reproduce the score, please credit Hymnary.org as the source. 
T:This hymn is in the public domain. You may freely use this score for personal and congregational worship. If you reproduce the score, please credit Hymnary.org as the source. 
Z:This hymn is in the public domain. You may freely use this score for personal and congregational worship. If you reproduce the score, please credit Hymnary.org as the source.
%%score ( 1 2 ) ( 3 4 )
L:1/8
M:4/4
K:Eb
V:1 treble nm="SOPRANO ALTO" snm="S. A."
V:2 treble 
V:3 bass nm="TENOR BASS" snm="T. B."
V:4 bass 
V:1
"^1""^2""^3" GA | B2 e2 d2 c2 | B4 G2 EF | G2 EF G2 F2 | E6 | G=A | B2 e2 d2 c2 | B4 G2 G=A | %8
w: Come, _|all who fear the|Lord God, O *|saints, your * voic- es|raise.|Come, *|stand in awe be-|fore him and *|
w: All *|kin- dreds of the|na- tions to *|Christ the * Lord shall|turn.|Through _|earth's re- mot- est|re- gions his *|
w: Both *|high and low shall|wor- ship, both *|strong and * weak shall|bend.|A *|faith- ful church shall|serve him till *|
 B2 G=A B2 A2 | G6 | B2 | B2 B2 c2 e2 | d4 B2 Bc | d2 Bc d2 c2 | B6 |1 B2 | e2 B2 B2 A2 | %17
w: sing his * glo- rious|praise.|You|low- ly and af-|flict- ed who *|on his * word re-|ly,|your|heart shall live for-|
w: al- tar * fires shall|burn.|All|king- doms, power, and|glo- ry be- *|long to * him a-|lone.|He|rules o'er all the|
w: gen- er- * a- tions|end.|His|praise shall be re-|count- ed to *|na- tions * yet to|be.|The|tri- umphs of his|
 G4 E2 EF | G2 EF G2 F2 | E6 x2 |] %20
w: ev- er; the *|Lord will * sa- tis-|fy.|
w: na- tions; kings _|bow be- * fore his|throne.|
w: jus- tice a *|new- born * world shall|see.|
V:2
 G2 | F2 E2 E2 E2 | E4 E2 E2 | D2 E2 E2 D2 | E6 | E2 | F2 ^F2 G2 D2 | D4 D2 G2 | F2 E2 G2 ^F2 | %9
 D6 | G2 | A2 G2 G2 _G2 | F4 F2 E2 | F2 G2 F2 E2 | D6 |1 D2 | E2 ED E2 FE | D4 E2 E2 | %18
 E2 E2 E2 D2 | B,6 x2 |] %20
V:3
 E2 | D2 C2 B,2 A,2 | G,4 E,2 G,2 | G,2 G,A, B,2 A,2 | G,6 | B,2 | B,2 =A,2 G,2 ^F,2 | %7
 G,4 B,2 B,C | D2 E2 D2 C2 | B,6 | D2 | D2 E2 E2 C2 | D4 D2 B,2 | B,2 DC B,2 =A,2 | F,6 |1 A,2 | %16
 G,2 B,2 C2 C2 | =B,4 G,2 C2 | B,2 G,A, B,2 A,2 | G,6 x2 |] %20
V:4
 E,2 | E,2 E,2 A,,2 C,2 | E,4 E,2 C,2 | =B,,2 C,2 _B,,2 B,,2 | E,6 | E,2 | D,2 C,2 B,,2 =A,,2 | %7
 G,,4 G,2 E,2 | B,,2 C,2 D,2 D,2 | G,6 | G,2 | F,2 E,D, C,B,, =A,,2 | B,,4 B,2 G,2 | %13
 F,2 =E,2 F,2 F,2 | B,,6 |1 B,,2 | C,2 G,,2 A,,2 F,,2 | G,,4 C,2 A,,2 | B,,2 C,2 B,,2 B,,2 | %19
 E,6 x2 |] %20

